icons/op-server-key-24.svg

<svg width="24" height="24" viewBox="0 0 24 24" fill="none" xmlns="http://www.w3.org/2000/svg">
<path d="M19.9688 12.25C19.8125 11.625 19.3438 10.8438 18.7188 10.5625C18.4062 10.4062 18.0625 10.3125 17.7188 10.2188L16.6875 10.25C16.3438 10.375 16.0312 10.5 15.7188 10.6562C14.8438 11.1562 14.625 12.2188 14.5625 13.0938C14.5625 13.3438 14.6875 13.5625 14.75 13.8125C10.4375 18.3125 11.375 16.0938 10.3438 19.5312L12 20C12.8438 19.0312 12.25 19.5312 14.0625 18.8438L14.0312 17.7812L14.625 17.2188L15.2188 17.75L16.3125 16.625L15.75 16.125L16.4688 15.3438L17.2188 15.4688C17.6875 15.375 18.2188 15.3125 18.6562 15.125C19.4688 14.8125 19.75 13.9375 20 13.25C19.9688 12.9062 20.0312 12.5625 19.9688 12.25ZM18.1875 12.5938C18 12.7812 17.6875 12.8125 17.5 12.625C17.2812 12.4375 17.2812 12.1562 17.4688 11.9688C17.6562 11.75 17.9688 11.75 18.1562 11.9375C18.3438 12.125 18.375 12.4062 18.1875 12.5938ZM5.4375 5.4375H14.8438V8.09375H16.3125V4H4V20H8.125V18.5625H5.4375V5.4375ZM7.15625 11.9062H12.9688V12.875H7.15625V11.9062ZM7.1875 10H13V11H7.1875V10ZM7.1875 8.09375H13V9.09375H7.1875V8.09375Z" fill="black"/>
</svg>

<svg xmlns="http://www.w3.org/2000/svg" width="24" height="24" viewBox="0 0 24 24"><path d="M19.969 12.25c-.157-.625-.625-1.406-1.25-1.688-.313-.156-.657-.25-1-.343l-1.031.031a8.99 8.99 0 0 0-.969.406c-.875.5-1.094 1.563-1.157 2.438 0 .25.126.468.188.718-4.312 4.5-3.375 2.282-4.406 5.719L12 20c.844-.969.25-.469 2.062-1.156l-.031-1.063.594-.562.594.531 1.093-1.125-.562-.5.719-.781.75.125c.469-.094 1-.157 1.437-.344.813-.313 1.094-1.187 1.344-1.875-.031-.344.031-.688-.031-1Zm-1.781.344c-.188.187-.5.218-.688.031a.43.43 0 0 1-.031-.656.464.464 0 0 1 .687-.031c.188.187.219.468.032.656ZM5.438 5.438h9.406v2.656h1.468V4H4v16h4.125v-1.438H5.438V5.438Zm1.718 6.468h5.813v.969H7.156v-.969ZM7.188 10H13v1H7.188v-1Zm0-1.906H13v1H7.188v-1Z"/></svg>
